X: 115
T: Vray dieu quel payne m'esse
%%abc-version 2.0
%%abcx-abcm2ps-target-version 5.9.1 (29 Sep 2008)
%%abc-creator hum2abc beta
%%abcx-conversion-date 2022/03/06 13:05:58
%%abc-copyright Copyright 2018, Kolb, Paul
%%abc-edited-by Zybina, Karina
%%humdrum-veritas 509336358
%%humdrum-veritas-data 3350261521
%%linebreak <none>
%%barnumbers 0
L: 1/4
M: 2/2
N: Derived from Gas0508-Vray_dieu_quel_payne_messe.krn
%%staves [1 2 3 4]
V: 1 clef=treble
V: 2 clef=treble-8
V: 3 clef=treble-8
V: 4 clef=bass
K: F
[V:1] z4 | 
[V:2] G4 | 
[V:3] z4 | 
[V:4] z4 | 
[V:1] G4 | 
[V:2] G2G2 | 
[V:3] z4 | 
[V:4] z4 | 
[V:1] G2d2 | 
[V:2] d2d2- | 
[V:3] G4 | 
[V:4] z4 | 
[V:1] d2d2 | 
[V:2] def2 | 
[V:3] G2d2- | 
[V:4] z4 | 
[V:1] d3c | 
[V:2] g3f | 
[V:3] d2d2 | 
[V:4] G,4 | 
[V:1] B>AB2 | 
[V:2] gdg2- | 
[V:3] d4 | 
[V:4] G,2G,2 | 
[V:1] c4 | 
[V:2] gff2- | 
[V:3] c3B/A/ | 
[V:4] A,2F,2 | 
[V:1] z4 | 
[V:2] fe/d/e2 | 
[V:3] B4 | 
[V:4] G,4 | 
[V:1] z4 | 
[V:2] f4 | 
[V:3] c4 | 
[V:4] F,4 | 
[V:1] f4 | 
[V:2] a4 | 
[V:3] z4 | 
[V:4] F,4 | 
[V:1] e2d2 | 
[V:2] g2f2 | 
[V:3] z4 | 
[V:4] C2D2 | 
[V:1] d2^c2 | 
[V:2] e2e2 | 
[V:3] z4 | 
[V:4] A,2A,2 | 
[V:1] d4 | 
[V:2] d4 | 
[V:3] f4 | 
[V:4] B,3A, | 
[V:1] z4 | 
[V:2] z4 | 
[V:3] e2d2 | 
[V:4] G,2F,2 | 
[V:1] z4 | 
[V:2] z4 | 
[V:3] d2^c2 | 
[V:4] E,4 | 
[V:1] z2d2 | 
[V:2] f3g | 
[V:3] d4- | 
[V:4] D,3E, | 
[V:1] d2d2 | 
[V:2] a2g2- | 
[V:3] d4 | 
[V:4] F,2G,2 | 
[V:1] c2A2 | 
[V:2] g^f/e/^f2 | 
[V:3] z4 | 
[V:4] A,4 | 
[V:1] B3A | 
[V:2] g2d2- | 
[V:3] z4 | 
[V:4] G,4- | 
[V:1] G4 | 
[V:2] dcB2 | 
[V:3] z2d2 | 
[V:4] G,4 | 
[V:1] F4 | 
[V:2] A2A2 | 
[V:3] d2d2 | 
[V:4] D,3E, | 
[V:1] z4 | 
[V:2] A>Bc2 | 
[V:3] c2A2 | 
[V:4] F,4 | 
[V:1] z4 | 
[V:2] Bd>ef- | 
[V:3] B3A | 
[V:4] G,3A, | 
[V:1] z4 | 
[V:2] fe/d/e2 | 
[V:3] G4 | 
[V:4] B,4 | 
[V:1] A3B | 
[V:2] f4 | 
[V:3] F4 | 
[V:4] C2F,2- | 
[V:1] c4 | 
[V:2] f2e2 | 
[V:3] z4 | 
[V:4] F,G,A,2 | 
[V:1] d4 | 
[V:2] d3e | 
[V:3] z4 | 
[V:4] B,3A,/G,/ | 
[V:1] c2B2 | 
[V:2] f2g2 | 
[V:3] z4 | 
[V:4] A,2G,2 | 
[V:1] A2A2 | 
[V:2] c4 | 
[V:3] A3B | 
[V:4] F,4 | 
[V:1] G3A | 
[V:2] e3f | 
[V:3] c4 | 
[V:4] C,4 | 
[V:1] B2A2- | 
[V:2] g2f2- | 
[V:3] d4 | 
[V:4] G,2D,2 | 
[V:1] AGG2- | 
[V:2] fedc | 
[V:3] c2B2 | 
[V:4] F,2G,2 | 
[V:1] G2^F2 | 
[V:2] d4 | 
[V:3] A4 | 
[V:4] D,4 | 
[V:1] [M:3/2]G6 | 
[V:2] [M:3/2]d2e2g2 | 
[V:3] [M:3/2]G6 | 
[V:4] [M:3/2]G,6 | 
[V:1] d6 | 
[V:2] f4d2 | 
[V:3] z2z2G2 | 
[V:4] B,6 | 
[V:1] d6 | 
[V:2] g6 | 
[V:3] d6 | 
[V:4] G,6 | 
[V:1] d2>c2A2 | 
[V:2] f6 | 
[V:3] d6 | 
[V:4] D,2>E,2F,2 | 
[V:1] B4A2- | 
[V:2] d2g3f | 
[V:3] d4c2 | 
[V:4] G,4A,2 | 
[V:1] A2G4 | 
[V:2] f4e2 | 
[V:3] A2B4 | 
[V:4] F,2G,4 | 
[V:1] A4c2- | 
[V:2] f4e2 | 
[V:3] c6 | 
[V:4] F,4A,2- | 
[V:1] c2d4 | 
[V:2] c2f2d2 | 
[V:3] f6 | 
[V:4] A,2B,4 | 
[V:1] c4d2 | 
[V:2] g2a3g | 
[V:3] e4d2 | 
[V:4] C4B,2 | 
[V:1] B2c2A2 | 
[V:2] g4^f2 | 
[V:3] d2c4 | 
[V:4] G,2A,4 | 
[V:1] B6 | 
[V:2] g6 | 
[V:3] d6 | 
[V:4] G,6 | 
[V:1] d2>c2B2 | 
[V:2] f6 | 
[V:3] d6 | 
[V:4] B,6 | 
[V:1] A6 | 
[V:2] f6 | 
[V:3] c4A2 | 
[V:4] F,6 | 
[V:1] G6 | 
[V:2] d4e2 | 
[V:3] B2>A2G2 | 
[V:4] G,2>A,2B,2 | 
[V:1] A4G2 | 
[V:2] f2>e2d2 | 
[V:3] F4G2 | 
[V:4] C4B,2 | 
[V:1] c6 | 
[V:2] c2e2f2 | 
[V:3] A2>B2c2 | 
[V:4] C2A,4 | 
[V:1] B2A3G | 
[V:2] g3f2e | 
[V:3] d4c2 | 
[V:4] G,2D,2F,2 | 
[V:1] G4^F2 | 
[V:2] d2>c2d2 | 
[V:3] B2A4 | 
[V:4] G,2D,4 | 
[V:1] G4 |]  
[V:2] d4 |]  
[V:3] G4 |]  
[V:4] G,4 |]  


